assets/images/logos/Google_logo.svg

<svg width="579" height="205" viewBox="0 0 579 205" fill="none" xmlns="http://www.w3.org/2000/svg">
<path d="M147.451 75.0039H82.452V94.2919H128.55C126.273 121.338 103.77 132.873 82.53 132.873C55.355 132.873 31.641 111.492 31.641 81.5229C31.641 52.3289 54.246 29.8459 82.59 29.8459C104.457 29.8459 117.342 43.7849 117.342 43.7849L130.848 29.7999C130.848 29.7999 113.514 10.5029 81.9 10.5029C41.643 10.5029 10.5 44.4789 10.5 81.1779C10.5 117.139 39.795 152.204 82.926 152.204C120.86 152.204 148.628 126.218 148.628 87.7899C148.628 79.6839 147.451 74.9979 147.451 74.9979V75.0039Z" fill="#F4F7FE"/>
<path d="M200.696 61.0361C174.025 61.0361 154.911 81.8881 154.911 106.206C154.911 130.884 173.451 152.123 201.009 152.123C225.957 152.123 246.396 133.055 246.396 106.737C246.396 76.5711 222.621 61.0361 200.696 61.0361ZM200.961 78.9251C214.076 78.9251 226.505 89.5291 226.505 106.615C226.505 123.339 214.129 134.245 200.901 134.245C186.365 134.245 174.898 122.603 174.898 106.482C174.898 90.7071 186.223 78.9251 200.961 78.9251Z" fill="#F4F7FE"/>
<path d="M300.271 61.0361C273.6 61.0361 254.486 81.8881 254.486 106.206C254.486 130.884 273.026 152.123 300.584 152.123C325.532 152.123 345.97 133.055 345.97 106.737C345.971 76.5711 322.196 61.0361 300.271 61.0361ZM300.536 78.9251C313.653 78.9251 326.081 89.5291 326.081 106.615C326.081 123.339 313.705 134.245 300.476 134.245C285.941 134.245 274.474 122.603 274.474 106.482C274.474 90.7071 285.798 78.9251 300.536 78.9251Z" fill="#F4F7FE"/>
<path d="M397.939 61.083C373.458 61.083 354.215 82.524 354.215 106.59C354.215 134.003 376.524 152.181 397.517 152.181C410.497 152.181 417.399 147.029 422.495 141.115V150.095C422.495 165.807 412.955 175.218 398.555 175.218C384.643 175.218 377.666 164.874 375.241 159.004L357.738 166.322C363.947 179.452 376.447 193.144 398.701 193.144C423.041 193.144 441.592 177.813 441.592 145.659V63.822H422.497V71.537C416.625 65.21 408.595 61.084 397.939 61.083ZM399.711 78.937C411.713 78.937 424.039 89.186 424.039 106.687C424.039 124.477 411.74 134.281 399.446 134.281C386.394 134.281 374.251 123.684 374.251 106.856C374.251 89.371 386.863 78.937 399.711 78.937Z" fill="#F4F7FE"/>
<path d="M526.493 60.9746C503.4 60.9746 484.012 79.3476 484.012 106.458C484.012 135.145 505.623 152.158 528.712 152.158C547.982 152.158 559.808 141.616 566.865 132.171L551.121 121.695C547.036 128.035 540.206 134.232 528.808 134.232C516.003 134.232 510.117 127.221 506.47 120.429L567.537 95.0896L564.367 87.6636C558.468 73.1216 544.705 60.9766 526.495 60.9766L526.493 60.9746ZM527.288 78.4906C535.61 78.4906 541.598 82.9146 544.142 88.2186L503.361 105.265C501.602 92.0676 514.104 78.4906 527.288 78.4906Z" fill="#F4F7FE"/>
<path d="M454.898 149.454H474.957V15.2129H454.898V149.454Z" fill="#F4F7FE"/>
</svg>

<?xml version="1.0" encoding="utf-8"?>
<!-- Generator: Adobe Illustrator 14.0.0, SVG Export Plug-In . SVG Version: 6.00 Build 43363)  -->
<!DOCTYPE svg PUBLIC "-//W3C//DTD SVG 1.1//EN" "http://www.w3.org/Graphics/SVG/1.1/DTD/svg11.dtd">
<svg version="1.1"
	 id="google" xmlns:cc="http://creativecommons.org/ns#" xmlns:rdf="http://www.w3.org/1999/02/22-rdf-syntax-ns#" xmlns:dc="http://purl.org/dc/elements/1.1/"
	 xmlns="http://www.w3.org/2000/svg" xmlns:xlink="http://www.w3.org/1999/xlink" x="0px" y="0px" width="578.5px"
	 height="204.78px" viewBox="0 0 578.5 204.78" enable-background="new 0 0 578.5 204.78" xml:space="preserve">
<path id="g_1_" fill="white" d="M147.451,75.004H82.452v19.288h46.098c-2.277,27.046-24.78,38.581-46.02,38.581
	c-27.175,0-50.889-21.381-50.889-51.35c0-29.194,22.605-51.677,50.949-51.677c21.867,0,34.752,13.939,34.752,13.939L130.848,29.8
	c0,0-17.334-19.297-48.948-19.297c-40.257,0-71.4,33.976-71.4,70.675c0,35.961,29.295,71.026,72.426,71.026
	c37.934,0,65.702-25.986,65.702-64.414c0-8.106-1.177-12.792-1.177-12.792L147.451,75.004z"/>
<path id="o_1_" fill="white" d="M200.696,61.036c-26.671,0-45.785,20.852-45.785,45.17c0,24.678,18.54,45.917,46.098,45.917
	c24.948,0,45.387-19.068,45.387-45.386C246.396,76.571,222.621,61.036,200.696,61.036L200.696,61.036z M200.961,78.925
	c13.115,0,25.544,10.604,25.544,27.69c0,16.724-12.376,27.63-25.604,27.63c-14.536,0-26.003-11.642-26.003-27.763
	C174.898,90.707,186.223,78.925,200.961,78.925L200.961,78.925z"/>
<path id="o" fill="white" d="M300.271,61.036c-26.671,0-45.785,20.852-45.785,45.17c0,24.678,18.54,45.917,46.098,45.917
	c24.948,0,45.386-19.068,45.386-45.386C345.971,76.571,322.196,61.036,300.271,61.036L300.271,61.036z M300.536,78.925
	c13.117,0,25.545,10.604,25.545,27.69c0,16.724-12.376,27.63-25.605,27.63c-14.535,0-26.002-11.642-26.002-27.763
	C274.474,90.707,285.798,78.925,300.536,78.925L300.536,78.925z"/>
<path id="g" fill="white" d="M397.939,61.083c-24.481,0-43.724,21.441-43.724,45.507c0,27.413,22.309,45.591,43.302,45.591
	c12.98,0,19.882-5.152,24.978-11.066v8.98c0,15.712-9.54,25.123-23.94,25.123c-13.912,0-20.889-10.344-23.314-16.214l-17.503,7.318
	c6.209,13.13,18.709,26.822,40.963,26.822c24.34,0,42.891-15.331,42.891-47.485V63.822h-19.095v7.715
	C416.625,65.21,408.595,61.084,397.939,61.083L397.939,61.083z M399.711,78.937c12.002,0,24.328,10.249,24.328,27.75
	c0,17.79-12.299,27.594-24.593,27.594c-13.052,0-25.195-10.597-25.195-27.425C374.251,89.371,386.863,78.937,399.711,78.937
	L399.711,78.937z"/>
<path id="e" fill="white" d="M526.493,60.975c-23.093,0-42.481,18.373-42.481,45.483c0,28.687,21.611,45.7,44.7,45.7
	c19.27,0,31.096-10.542,38.153-19.987l-15.744-10.476c-4.085,6.34-10.915,12.537-22.313,12.537
	c-12.805,0-18.691-7.011-22.338-13.803l61.067-25.339l-3.17-7.426c-5.899-14.542-19.662-26.687-37.872-26.687L526.493,60.975z
	 M527.288,78.491c8.322,0,14.31,4.424,16.854,9.728l-40.781,17.046C501.602,92.068,514.104,78.491,527.288,78.491L527.288,78.491z"
	/>
<path id="l" fill="white" d="M454.898,149.454h20.059V15.213h-20.059V149.454z"/>
</svg>
